X: 89
T: Quant de vous seul
N: Derived from Ock3017-Quant_de_vous_seul.krn
C: Johannes Ockeghem
%%abc-version 2.0
%%abcx-abcm2ps-target-version 5.9.1 (29 Sep 2008)
%%abc-creator hum2abc beta
%%abcx-conversion-date 2019/02/17 07:26:16
%%abc-edited-by Jesse Rodin
%%abc-edited-by Chris Gage 06-25-2012
%%abcx-initial-encoding-date 2012/08/16/
%%humdrum-veritas 4096430700
%%humdrum-veritas-data 1641508927
%%linebreak <none>
%%barnumbers 0
L: 1/4
M: 4/2
Q: 1/2=120
V: 1 clef=treble
V: 2 clef=treble-8
V: 3 clef=bass
K: C
[V:1] D4D4 | 
[V:2] D4F2G2 | 
[V:3] A,4D,2B,,2 | 
[V:1] C2F4G2 | 
[V:2] A3GA2_B2 | 
[V:3] A,,4D,3E, | 
[V:1] A4z2G2 | 
[V:2] A2F2G2E2 | 
[V:3] F,2D,3B,,C,2 | 
[V:1] F2A3GE2- | 
[V:2] D2D2F2G2 | 
[V:3] z2D,4C,2- | 
[V:1] E2C2D2B,2 | 
[V:2] A4F2G2 | 
[V:3] C,2F,4E,2 | 
[V:1] A,2D4^C2 | 
[V:2] A2D2E4 | 
[V:3] F,2A,4G,2 | 
[V:1] D4z2F2 | 
[V:2] D8 | 
[V:3] z2A,2_B,2A,2 | 
[V:1] F3ED2C2 | 
[V:2] z2F2F3E | 
[V:3] F,4z2A,2 | 
[V:1] F2G2A2A2 | 
[V:2] D2C2F2F2 | 
[V:3] B,2C4C2- | 
[V:1] c3BG4 | 
[V:2] A2A2c3B | 
[V:3] C2E6 | 
[V:1] z4A3G/F/ | 
[V:2] G4c4 | 
[V:3] D4A,4 | 
[V:1] E2F3DA2 | 
[V:2] c2d4d2- | 
[V:3] A,2D,4D,2- | 
[V:1] B2c4d2- | 
[V:2] d2e4d2 | 
[V:3] D,2A,,4D,2- | 
[V:1] dcA2c2B2- | 
[V:2] f4e2d2 | 
[V:3] D,4E,2G,2- | 
[V:1] B2A4^G2 | 
[V:2] c4B4 | 
[V:3] G,2A,2D4 | 
[V:1] A4z2A2 | 
[V:2] A8 | 
[V:3] z2D,2F,2F,2 | 
[V:1] c2c2G2G2 | 
[V:2] z2A2c4- | 
[V:3] C,2C,2C,4 | 
[V:1] A2A2_B3A | 
[V:2] c2c2G2G2 | 
[V:3] F,4_E,4 | 
[V:1] !fermata!F8 | 
[V:2] !fermata!A2A2_B3A | 
[V:3] !fermata!D,4D4 | 
[V:1] z4F4 | 
[V:2] F4z2A2 | 
[V:3] C4F,2D,2 | 
[V:1] E2C6 | 
[V:2] c4A2F2- | 
[V:3] C,4F,3G, | 
[V:1] D4B,2A,2 | 
[V:2] F2F2G2A2- | 
[V:3] A,4D2C2- | 
[V:1] z2EFG4 | 
[V:2] A2G3FE2 | 
[V:3] CA,B,2C4 | 
[V:1] F2D6- | 
[V:2] D2z2Bcd2 | 
[V:3] D4G,2B,2 | 
[V:1] D2C2F2A2- | 
[V:2] e4d4 | 
[V:3] A,4D,4 | 
[V:1] A2G4F2 | 
[V:2] c2B2A4 | 
[V:3] z2D4C2 | 
[V:1] G2_B4A2- | 
[V:2] G6d2- | 
[V:3] D4E2F2 | 
[V:1] A2G2F2E2- | 
[V:2] d2B2A4- | 
[V:3] D4C4 | 
[V:1] E2A4^G2 | 
[V:2] A4B4 | 
[V:3] z2C2D4 | 
[V:1] A4z2A2 | 
[V:2] A4G2F2 | 
[V:3] E2C2D4 | 
[V:1] G4F2E2- | 
[V:2] E2FGA3G | 
[V:3] E4C4 | 
[V:1] E2D2CDE2 | 
[V:2] A2D2E2C2 | 
[V:3] A,4G,4 | 
[V:1] A,4A4 | 
[V:2] D2A,2D2F2 | 
[V:3] F,2E,2F,2D,2 | 
[V:1] G4F2E2- | 
[V:2] E2FGA3G | 
[V:3] z2B,,2A,,4 | 
[V:1] E2D4^C2 | 
[V:2] F2D2E4 | 
[V:3] A,2A,4G,2 | 
[V:1] D8 |]  
[V:2] D8 |]  
[V:3] A,8 |]  



